!!!COM: Johannes Brahms
!!!CNT: Deutscher
!!!TXO: Deutsche
!!!OTL: Wenn um den Hollunder
!!!OPS: Op. 63
!!!ONM: No. 6
!!!LYR: Schumann
!!!ONB: Original key: D Major
!!!ENC: Ayako Kataoka        
!!!EED: Leigh VanHandel
!!!YOR: C.F. Peters, Brahms Lieder fu2r eine Singstimme mit Klavierbegleitung, Band III, ausgabe fu2r tiefere Stimme
!!!ODT: 1874/
!!NB: Vocal melody and text only encoded.
**kern	**silbe
*clefG2	*
*k[f#c#g#d#a#]	*
*M6/4	*
*MM[allegro]	*
!! tempo indication: Zart bewegt
=3	=3
2.r	.
4r	.
4r	.
{4b	{Wenn
=4	=4
4.a#	um
8a#	den
4g#	Hol-
4a#	-lun-
4f#	-der
4g#	der
=5	=5
4f#	A-
4d#	-bend-
4e	-wind
4f#	kost
4a#	und
4cc#	der
=6	=6
(4ee	Fal-
4dd#)	|
4cc#	-ter
4g#	um
4f#	den
4b	Jas-
=7	=7
2cc#	-mi-
4g#	-nen-
4a#}	-strauch,}
4r	.
{4f#	{dann
=8	=8
4.gn	kos
8an	ich
4b	mit
2ee	mei-
4a	-nem
=9	=9
(4.gn	Lieb-
8an)	|
4b	-chen
2ee	auch
8cc#	auf
8cc#	der
=10	=10
2ddn	Stein-
4cc#	-bank
4a#	schat-
4b	-tig
4gn	und
=11	=11
2f#	weich
4e#	be-
2cc#}	-moost,}
{8f#	{auf
8f#	der
=12	=12
2dd#	Stein-
4a#	-bank
4b	schat-
4f##	-tig
4g#	und
=13	=13
[2.f#	weich
2f#]	|
4A#	be-
=14	=14
2B}	-moost.}
4r	.
4r	.
4r	.
{4b	{Und
=15	=15
2a#	wenn
4g#	vom
4a#	Dor-
4f#	-fe
4g#	die
=16	=16
4f#	Glo-
4d#	-cke
4e	er-
4f#	-schallt
4a#	und
4cc#	der
=17	=17
(4ee	Ler-
4dd#)	|
4cc#	-che
4g#	ju-
4f#	-beln-
4b	-des
=18	=18
4.cc#	A-
8g#	-bend-
4g#	-ge-
2a#}	-bet,}
{4f#	{denn
=19	=19
4.gn	schwei-
8an	-gen
4b	wir
2ee	auch
8a#	und
8a#	die
=20	=20
4.gn	See-
8an	-le
4b	zer-
2ee	-geht
8cc#	vor
8cc#	der
=21	=21
2ddn	Lie-
4cc#	-be
4a#	hei-
4b	-li-
4gn	-ger
=22	=22
4.f#	Got-
8f#	-tes-
4e#	-ge-
2cc#}	-walt,}
{8f#	{vor
8f#	der
=23	=23
2dd#	Lie-
4a#	-be
4b	hei-
4f##	-li-
4g#	-ger
=24	=24
2.f#	Got-
2A#	-tes-
4A#	-ge-
=25	=25
2B}	-walt.}
4r	.
2.r	.
=28	=28
2.r	.
4r	.
4r	.
{4b	{Und
=29	=29
4.a#	blickt
8a#	dann
4g#	vom
4a#	Him-
4f#	-mel
4g#	der
=30	=30
(4f#	Ster-
4d#)	|
4e	-ne
4f#	Schar
4a#	und
4cc#	das
=31	=31
4ee	Glu2h-
4dd#	-wu2rm-
4cc#	-chen
(4g#	in
4f#)	|
4b	der
=32	=32
2cc#	Li-
4g#	-lie
4a#}	Schoss,}
4r	.
{4f#	{dann
=33	=33
4.gn	las-
8an	-se
4b	ich
2ee	sie
8a#	aus
8a#	den
=34	=34
(4.gn	Ar-
8an)	|
4b	-men
2ee	los
4cc#	und
=35	=35
4.ddn	ku2s-
8dd	-se
4cc#	ihr
4a#	schei-
4b	-dend
4gn	das
=36	=36
2f#	Au-
4e#	-gen-
2cc#}	-paar,}
{4f#	{und
=37	=37
4.dd#	ku2s-
8dd#	-se
4a#	ihr
4b	schei-
4f##	-dend
4g#	das
=38	=38
[2.f#	Au-
2f#]	|
4A#	-gen-
=39	=39
2B}	-paar.}
4r	.
2.r	.
*-	*-
